X:1
T:Bring Us in Hot Tea
M:3/4
L:1/4
K:C
 A2 c| B2 d| c2- e-| d2 B| c2 B| A2 G| G E2-| E2 E| A2 c| B2 d| c3|\
 B3| B2 A| G- A B| B A2-| A2 e| e2 e| d2 f| e2 e| A2 B| c2 d| c- B A|\
 E3-| E2 E| A2 c| B2 d| c2 e| d2 c| B2 A| G- A B| A3-| A3|
